X:1
T:Can the World See Jesus in You?
T:Lelia Naylor Morris, 1917
T:Can the World See Jesus in You?
T:Public Domain
T:Public Domain
C:Lelia Naylor Morris, 1917
Z:Public Domain
%%score ( 1 2 ) ( 3 4 )
L:1/8
M:4/4
K:Bb
V:1 treble 
V:2 treble 
V:3 bass 
V:4 bass 
V:1
 [B,D][CE] | [DF]2 [DG]2 [DG]2 [DF][DB] | [EB]2 [EA]2 [EA]2 [Ec][EB] | [EA]2 [EA]2 [EA]2 [EG][EA] | %4
w: 1.~Do we|live so close to the|Lord to- day, Pass- ing|to and fro on life’s|
w: 2.~Do we|love, with love to His|own a- kin, All His|crea- tures lost in the|
w: 3.~As an|o- pen book they our|lives will read, To our|words and acts giv- ing|
 [EG]2 [DF]2 [DF]2 [B,D][CE] | [DF]2 [DB]2 [Fd]2 [Fc][FB] | [FA]2 [EG]2 [EG]2 [EG][EG] | %7
w: bu- sy way, That the|world in us can a|like- ness see To the|
w: mire of sin? Will we|reach a hand, what- so-|e’er it cost, To re-|
w: dai- ly heed; Will they|be at- tract- ed, or|turn a- way From the|
 c2 G2 d2 c2 | (F2 =E2 [_Ec]2) ||"^Refrain" [Fd][Ec] | [DB]2 [DG]2 [DB] [DB]2 [DG] | %11
w: Man of Cal- va-|the * *|see Je-|sus in me? Can the|
w: claim a sin- ner||||
w: Man of Cal- va-||||
 [EA]6 [Ac][GB] | [EA]2 [CE]2 [EA] [EA]2 [EG] | [DF]6 [B,D][CE] | %14
w: world see Je-|sus in you? Does your|love to Him|
w: |||
w: |||
 [DF][^C=E][DF][CE] [DF]2 [DF][D^F] | [EG][E^F][EG][EF] [EG]2 [GB][GB] | %16
w: ring true, And your life and ser-|vice, too? Can the world see Je-|
w: ||
w: ||
 [Ff]2 [Fd]2 [Fd] [DB]2 [Ec] | (D2 E2 D2) |] %18
w: sus in you? * *||
w: ||
w: ||
V:2
 x2 | x8 | x8 | x8 | x8 | x8 | x8 | =E4 E4 | c4- x2 || x2 | x8 | x8 | x8 | x8 | x8 | x8 | x8 | %17
w: |||||||ry? Can|world|||||||||
w: |||||||lost? *||||||||||
w: |||||||ry? *||||||||||
 B6 |] %18
w: |
w: |
w: |
V:3
 [B,,F,][B,,F,] | [B,,B,]2 [B,,B,]2 [B,,B,]2 [B,,B,][B,,B,] | [C,F,]2 [C,F,]2 [F,C]2 [F,A,][F,B,] | %3
w: ~ ~|~ ~ ~ ~ ~|~ ~ ~ ~ ~|
 [F,C]2 [F,C]2 [F,C]2 [F,A,][F,A,] | [B,,B,]2 [B,,B,]2 [B,,B,]2 [B,,F,][B,,F,] | %5
w: ~ ~ ~ ~ ~|~ ~ ~ ~ ~|
 [B,,B,]2 [B,,B,]2 [B,,B,]2 [E,A,][D,B,] | [E,B,]2 [E,B,]2 [E,B,]2 [E,B,][E,B,] | [C,B,]4 [C,B,]4 | %8
w: ~ ~ ~ ~ ~|~ ~ ~ ~ ~|~ ~|
 [F,A,]2 [G,B,]2 [F,A,]2 || z2 | [B,,F,][B,,F,] [B,,B,]2 [B,,F,]4 | [C,F,][C,F,] [F,C]2 [F,C]4 | %12
w: ~ ~ ~||Can the world see|Je- sus in me?|
 [F,C][F,C] [F,A,]2 (C3 A,) | [B,,B,][B,,F,](G,A,) [B,,B,]2 [B,,F,][B,,F,] | %14
w: Can the world see *|sus in you? * * * *|
 [B,,B,][B,,B,][B,,B,][B,,B,] [B,,B,]2 [B,,B,][B,,B,] | %15
w: |
 [E,B,][E,A,][E,B,][E,A,] [E,B,]2 [=E,^C][E,C] | [F,D]2 [F,B,]2 [F,B,] [F,B,]2 [F,B,] | %17
w: ||
 (B,2 G,2 F,2) |] %18
w: |
V:4
 x2 | x8 | x8 | x8 | x8 | x8 | x8 | x8 | x6 || x2 | x8 | x8 | x4 F,4 | x2 B,,2 x4 | x8 | x8 | x8 | %17
w: ||||||||||||Je-|||||
 B,,6 |] %18
w: |

